X:18
T:The Hesleyside Reel
R:hornpipe
M:4/4
A:Northumbria
Z:Richard Morgan
K:G
GA | B2 dB AGAB | GABc d2ef | gfge dBGB | e2A2 A2GA |
B2 dB AGAB | GABc d2ef | gfge dBGA | B2G2 G2 ::
Bc |edef gfge | dBGB d2Bd | edef gfge | dBGB A2GA |
B2 dB AGAB | GABc d2ef | gfge dBGA | B2G2 G2 :|
